!!!OTL: HIER KOMMEN WIR HER VOR DIESES HAUS
!!!ARE: Europa, Mitteleuropa, Deutschland, Ober- Bergisches Land, Gunnersbach
!!!SCT: E1253
!!!YEM: Copyright 1995, estate of Helmut Schaffrath.
**kern
*ICvox
*Ivox
*M2/4
*k[f#]
*G:
{8d
=1
8g
8g
8g
8g
=2
8b
8g
4g}
=3
{4b
8b
8b
=4
8dd
8cc
8b}
{8b
=5
8dd
8cc
8b
8a
=6
8b
8a
4g}
=7
{4a
8a
8a
=8
8g
8a
4b}
=9
{8cc
8b
8a
8g
=10
8f#
8e
8e}
==
!!!AGN: Ansinge -, Brauchtums - Lied, Kirchen - Fest, Pfingsten
!! Schluss modulierend
!!!ONB: ESAC (Essen Associative Code) Database: ERK3
!!!AMT: simple duple
!!!AIN: vox
!!!EED: Helmut Schaffrath
!!!EEV: 1.0
*-
